src/assets/bold/lm-signature-bold.svg

<svg width="24" height="24" viewBox="0 0 24 24" fill="none" xmlns="http://www.w3.org/2000/svg" fill="currentColor">
<path d="M3.72614 15.3187C3.25472 15.3187 2.6499 15.2478 2.31936 15.1079C1.81359 14.8993 1.53861 14.552 1.50342 14.0757C1.44779 13.3234 2.07656 12.5591 2.98156 11.804C3.79531 11.1288 4.60453 10.7442 5.38707 10.6606C5.4392 10.655 5.48764 10.6522 5.5325 10.6522C5.99988 10.6522 6.07382 10.9713 6.08396 11.1085C6.13084 11.7417 5.64864 12.3848 4.6098 13.0746C4.48649 13.1547 4.37984 13.2227 4.2883 13.2797C4.16527 13.344 4.07464 13.3759 3.99912 13.3841C3.97756 13.3863 3.9585 13.3874 3.94164 13.3874C3.70928 13.3874 3.68691 13.1717 3.68517 13.1471C3.67108 12.956 3.80608 12.8273 3.85048 12.7849C3.94 12.7076 4.00944 12.6544 4.07013 12.6156C4.53604 12.3099 4.87107 11.9751 5.06539 11.6205C4.53612 11.7163 3.97675 11.9868 3.39767 12.4267C2.73164 12.931 2.21265 13.4118 2.24554 13.8557C2.27068 14.1958 3.0876 14.2465 3.45421 14.2465C3.64631 14.2465 3.86596 14.2335 4.10716 14.2077C5.01438 14.1107 6.03072 13.8478 7.12795 13.4266C7.24215 13.3865 7.39934 13.3193 7.59975 13.2254C7.80043 13.1311 8.02043 13.0192 8.2537 12.8924C8.48486 12.7608 8.70579 12.6136 8.90738 12.4571C9.11109 12.3037 9.27263 12.1473 9.38986 11.9909C9.48058 11.8625 9.52413 11.7378 9.51575 11.6252C9.50542 11.4845 9.40468 11.3517 9.21636 11.2304C8.98271 11.0799 8.68054 10.9508 8.31825 10.8467C7.95235 10.7387 7.55976 10.6457 7.15012 10.57C6.73358 10.4841 6.34751 10.4128 5.9995 10.3575C5.80361 10.3191 5.5766 10.2558 5.31884 10.1683C5.04734 10.0666 4.80763 9.93581 4.60132 9.77788C4.35507 9.57805 4.22171 9.33456 4.20081 9.05061C4.17143 8.6534 4.33084 8.25918 4.67463 7.87892C4.99557 7.52161 5.46111 7.18568 6.05771 6.88089C6.55538 6.63695 7.04137 6.44544 7.50478 6.31044C7.97418 6.16547 8.42048 6.0695 8.82864 6.02582C8.98843 6.00875 9.13762 6 9.27179 6C9.59753 6 9.84674 6.04921 10.0337 6.1504C10.4101 6.33216 10.5107 6.64327 10.5277 6.87157C10.5393 7.0285 10.5084 7.22035 10.4335 7.4583C10.3637 7.68019 10.2693 7.88756 10.153 8.07441C10.0098 8.29065 9.85254 8.40679 9.68215 8.42508C9.66355 8.42708 9.64615 8.42796 9.62993 8.42796C9.42374 8.42796 9.339 8.27115 9.32905 8.13669C9.31754 7.97976 9.40963 7.85031 9.50118 7.74426C9.57477 7.65914 9.64853 7.5595 9.72047 7.44834C9.76853 7.37397 9.78971 7.30769 9.78522 7.24574C9.78199 7.20208 9.77711 7.1358 9.63666 7.10111C9.54917 7.07827 9.43663 7.06696 9.29987 7.06696C9.18595 7.06696 9.05387 7.07495 8.90726 7.09057C8.74186 7.10831 8.54312 7.14333 8.31667 7.19474C8.09278 7.23742 7.86107 7.29891 7.62237 7.37872C7.39803 7.44965 7.12838 7.54407 6.81847 7.65999C6.52378 7.77215 6.24565 7.91102 5.99284 8.07239C5.22819 8.55483 5.23638 8.78957 5.23711 8.79932C5.23794 8.81074 5.27026 9.08027 6.35716 9.25704C7.16537 9.3836 7.7965 9.48634 8.23201 9.56205C8.67313 9.63663 8.92622 9.67986 8.99059 9.69183C9.51949 9.83214 9.87727 10.0285 10.0966 10.2948C10.3236 10.5487 10.4541 10.8503 10.4788 11.1852C10.4955 11.4111 10.4494 11.663 10.3415 11.9337C10.245 12.1848 10.0809 12.43 9.8547 12.6594C9.55299 12.9832 9.20958 13.2996 8.8378 13.5961C8.4591 13.8881 7.97957 14.1625 7.41006 14.4141C6.87591 14.651 6.34711 14.8419 5.83866 14.9811C5.3395 15.1289 4.83456 15.2309 4.34092 15.2838C4.12497 15.3069 3.91816 15.3187 3.72614 15.3187Z" fill="black"/>
<path d="M11.8373 12.528C11.69 12.528 11.549 12.4926 11.4182 12.4227C11.3714 12.3977 11.3261 12.3693 11.2822 12.3372C11.025 12.1286 10.9044 11.7804 10.916 11.2962C10.9229 11.1445 10.9498 10.9502 10.9982 10.6962C11.0444 10.4417 11.1079 10.1797 11.1868 9.91989C11.276 9.64037 11.3774 9.3981 11.4892 9.19617C11.6267 8.94803 11.7861 8.81258 11.9629 8.79365C11.9812 8.79165 11.9994 8.79076 12.0175 8.79076C12.1325 8.79076 12.2457 8.82968 12.3541 8.90647C12.4925 8.99047 12.582 9.1492 12.5965 9.34681C12.6056 9.46784 12.5663 9.60194 12.4698 9.78117C12.3983 9.90329 12.3162 10.0549 12.2213 10.2392C12.1401 10.4005 12.069 10.5873 12.0111 10.7926C11.9563 10.9766 11.9368 11.1731 11.952 11.3804C11.9638 11.5403 11.995 11.6277 12.0221 11.6589C12.0361 11.6678 12.0426 11.6687 12.0516 11.6687C12.0811 11.6687 12.1731 11.6496 12.388 11.4724L12.7004 11.1724C12.8801 10.9605 12.9476 10.8568 13.1708 10.513L13.19 10.4833C13.2542 10.3922 13.3213 10.3689 13.367 10.364C13.3725 10.3634 13.3893 10.3624 13.3948 10.3624C13.513 10.3624 13.6578 10.4543 13.677 10.713C13.6841 10.8114 13.6484 10.9023 13.5178 11.1184C13.4841 11.1705 13.4747 11.1861 13.4683 11.1973C13.4552 11.2194 13.4506 11.2282 13.3677 11.3454L13.3327 11.3985C13.2651 11.5011 13.2012 11.598 13.1062 11.7137C13.0332 11.8026 12.8203 12.0298 12.7212 12.106L12.465 12.3029C12.2734 12.4503 12.0563 12.528 11.8373 12.528ZM12.6153 8.51654C12.4748 8.51654 12.3458 8.46478 12.232 8.3627C12.0962 8.21597 12.0269 8.04862 12.0123 7.85146C11.9979 7.65375 12.0414 7.4743 12.1418 7.31791C12.2593 7.15168 12.4011 7.06255 12.5692 7.04472C12.5888 7.04262 12.6083 7.04162 12.6276 7.04162C12.773 7.04162 12.9059 7.10013 13.0229 7.21584C13.155 7.34629 13.2325 7.52039 13.2472 7.71913C13.262 7.91762 13.2111 8.10548 13.1004 8.26218C12.9824 8.41402 12.8422 8.4957 12.6775 8.5132C12.6565 8.51542 12.6357 8.51654 12.6153 8.51654Z" fill="black"/>
<path d="M17.818 11.9203C17.6869 11.9203 17.5773 11.849 17.5095 11.7193C17.4566 11.6175 17.4259 11.5106 17.4178 11.4009C17.4119 11.3176 17.4244 11.2296 17.455 11.1386C17.5397 10.917 17.6307 10.5885 17.7285 10.152C17.8346 9.70096 17.914 9.24467 17.9652 8.79336C17.9757 8.71611 17.9825 8.65827 17.9865 8.61392C17.988 8.59985 17.9904 8.58588 17.9939 8.57236C18.0075 8.51904 18.025 8.45999 18.0464 8.39546C18.0917 8.24308 18.1984 8.10853 18.3608 8.00303C18.5161 7.90727 18.6402 7.85639 18.7441 7.84521C18.7496 7.84466 18.773 7.84333 18.7787 7.84333C18.8344 7.84333 18.8905 7.85773 18.9456 7.88622C19.0624 7.9289 19.1379 8.0437 19.1493 8.19809C19.1536 8.25417 19.1501 8.34072 19.0961 8.58943C19.0626 8.74336 19.0193 8.91759 18.9671 9.10778C19.004 9.05969 19.0417 9.01081 19.0806 8.96139C19.2394 8.75724 19.4028 8.55774 19.5658 8.36888C19.7279 8.18123 19.8752 8.02055 20.0038 7.89132C20.1653 7.72928 20.2845 7.65215 20.39 7.64097C20.4145 7.6383 20.4386 7.63699 20.4622 7.63699C20.5782 7.63699 20.6851 7.66858 20.7803 7.73086C20.8705 7.78074 21.0138 7.9063 21.0361 8.20644C21.0448 8.32503 21.0059 8.46478 20.9061 8.67391C20.8308 8.83139 20.742 9.01847 20.6396 9.23504C20.5429 9.43918 20.4611 9.65742 20.3963 9.88372C20.336 10.094 20.3132 10.3011 20.3279 10.4996C20.3368 10.6203 20.3675 10.7164 20.4219 10.7935C20.4512 10.8271 20.4974 10.8488 20.5602 10.8488C20.5703 10.8488 20.5806 10.8481 20.5911 10.847C20.7742 10.8275 20.7513 10.7595 20.9143 10.6447C21.0832 10.5168 21.2432 10.3628 21.3852 10.191C21.5317 10.0136 21.6613 9.84004 21.7709 9.67523C21.8813 9.49924 21.97 9.35838 22.0339 9.25785C22.0789 9.19357 22.1317 9.15967 22.1888 9.15323C22.1947 9.15256 22.2034 9.15213 22.2093 9.15213C22.2662 9.15213 22.3209 9.17707 22.3763 9.22826C22.4239 9.26551 22.4876 9.34197 22.4986 9.48782C22.5067 9.59512 22.4784 9.69807 22.4169 9.78551C22.2607 10.0472 22.0722 10.324 21.8663 10.5943C21.6637 10.87 21.4316 11.11 21.1789 11.3051C20.9146 11.5089 20.8129 11.6299 20.4856 11.665C20.429 11.6711 20.3745 11.674 20.3222 11.674C19.7092 11.674 19.3401 11.2469 19.2826 10.4713C19.2659 10.243 19.2865 9.97647 19.3442 9.67766C19.1955 9.87084 19.0657 10.0575 18.9557 10.2365C18.7163 10.6158 18.543 10.8968 18.4393 11.0738C18.4282 11.0908 18.4056 11.1269 18.3621 11.2701C18.3172 11.4051 18.2648 11.5301 18.2048 11.6486C18.0891 11.8547 17.9532 11.9081 17.8589 11.9181C17.8451 11.9197 17.8313 11.9203 17.818 11.9203Z" fill="black"/>
<path d="M15.7403 12.1695L15.7887 11.721C15.7917 11.6932 15.7841 11.6791 15.7782 11.6711C15.7675 11.6564 15.7498 11.647 15.7331 11.647C15.7172 11.647 15.704 11.6547 15.6909 11.6713C15.4404 11.9899 15.1378 12.1661 14.7853 12.2038C14.7635 12.2062 14.742 12.2074 14.721 12.2074C14.5458 12.2074 14.3869 12.1253 14.2612 11.97C14.1341 11.799 14.0634 11.5946 14.0456 11.3552C14.0194 10.9989 14.0784 10.6268 14.2207 10.2493C14.3666 9.88271 14.5596 9.5399 14.7965 9.22605C15.0393 8.90376 15.3071 8.63199 15.5922 8.41855C15.8963 8.19633 16.2 8.06822 16.4964 8.03641C16.5146 8.03441 16.5345 8.0334 16.5562 8.0334C16.6347 8.0334 16.7321 8.04726 16.8537 8.07575C16.9999 8.09769 17.146 8.14547 17.2755 8.2155C17.5071 8.33156 17.5687 8.51957 17.5789 8.65645L17.5721 8.73964C17.5414 8.86909 17.473 8.97545 17.3742 9.0476C17.3409 9.06911 17.3085 9.08816 17.2761 9.10523C17.2145 9.52051 17.1497 9.93624 17.0817 10.3522C17.0687 10.4312 17.0552 10.5048 17.0414 10.5806C17.0138 10.7306 16.9854 10.8857 16.9565 11.1115L16.9244 11.3672C16.8966 11.5916 16.8717 11.7912 16.8454 11.9584L16.7715 12.5418L16.766 12.5772C16.741 12.7126 16.7246 12.8185 16.7104 12.9109C16.6813 13.0991 16.5831 13.5591 16.5167 13.8578C16.4504 14.1565 16.3352 14.5134 16.1442 14.9891C15.9597 15.4486 15.7803 15.7516 15.4878 16.1903C15.0986 16.7733 14.9967 16.9116 14.4982 17.343C13.8544 17.9 13.2543 18 12.5631 18H12.5451C12.1547 17.9907 11.8496 17.9138 11.7022 17.8686L11.6622 17.8566C11.5212 17.8145 11.3631 17.7659 11.2725 17.722C10.951 17.5653 10.7677 17.4059 10.5763 17.1998C10.2065 16.8179 10.1326 16.4595 10.1081 16.1294C10.0727 15.6504 10.2029 15.3361 10.3768 14.9745C10.4108 14.9114 10.5656 14.6474 10.7963 14.6474C10.9416 14.6474 10.9831 14.7094 11.0027 14.7562C11.0682 14.9129 10.9178 15.1237 10.8611 15.2185C10.7123 15.5222 10.6931 15.5974 10.6767 15.7802C10.6599 15.9669 10.6616 16.0584 10.7476 16.2798C10.8157 16.4556 10.9058 16.552 11.0483 16.6688C11.2125 16.8036 11.5276 16.9568 11.6051 16.9874L11.6933 17.0196C11.8015 17.0592 11.887 17.0907 11.9577 17.1049C12.1353 17.1408 12.2706 17.1614 12.396 17.1716C12.4038 17.1723 12.415 17.1725 12.429 17.1725C12.5054 17.1725 12.7183 17.1705 12.8699 17.1534C13.0233 17.1359 13.1858 17.0995 13.3236 17.0321C13.4374 16.9762 13.5882 16.881 13.6865 16.8076C13.8157 16.7112 13.9357 16.6065 14.0394 16.4921C14.1996 16.3154 14.261 16.2274 14.4195 15.9913C14.4732 15.9113 14.6449 15.6096 14.6904 15.5226C14.7924 15.3273 14.9307 15.081 15.1089 14.5715C15.2872 14.0621 15.3285 13.9975 15.4925 13.369C15.6566 12.7405 15.7403 12.1695 15.7403 12.1695ZM16.1317 9.32721C16.1223 9.32721 16.1127 9.33131 16.1026 9.33964L16.0646 9.37166C15.8567 9.5419 15.6635 9.75346 15.4865 10.0039C15.3058 10.2498 15.159 10.5048 15.0477 10.7652C14.9532 10.9921 14.9112 11.1919 14.9234 11.3569C14.9243 11.3694 14.9254 11.3795 14.9267 11.3875C14.9667 11.3778 15.0381 11.3472 15.1616 11.2528C15.3049 11.1357 15.4526 10.9484 15.5962 10.6996C15.7565 10.4341 15.9033 10.1341 16.0348 9.80379C16.0891 9.6738 16.1381 9.54855 16.1836 9.42364C16.1892 9.40811 16.1939 9.38706 16.1805 9.36236C16.1693 9.34164 16.1492 9.32721 16.1317 9.32721Z" fill="black"/>
<path d="M3.72588 17.7965C3.57725 17.7965 3.44343 17.6897 3.38495 17.5245C3.30472 17.2984 3.39158 17.0349 3.57861 16.9374C6.75145 14.9781 9.45524 13.7383 12.6591 12.945C14.3441 12.5278 16.5425 12.2157 17.8722 12.1021C18.27 12.0682 18.881 12.0631 19.2097 12.0631C19.7338 12.0631 20.2375 12.0756 20.4932 12.0949C21.019 12.1344 21.1475 12.1833 21.4733 12.3416C21.6623 12.4331 21.7553 12.6938 21.68 12.9226C21.6236 13.0941 21.4886 13.205 21.3357 13.205C21.2884 13.205 21.242 13.1943 21.1978 13.1728C20.9644 13.0595 21.1567 12.8852 20.7001 12.8506C20.6259 12.8451 20.1723 12.8207 20.0572 12.8207C19.4463 12.8207 18.5104 12.8597 17.9747 12.9054C16.7748 13.008 15.3763 13.2022 13.5318 13.5616L11.8563 13.9379C8.60429 14.7414 6.8099 15.9213 3.88452 17.7528C3.82576 17.7841 3.77644 17.7965 3.72588 17.7965Z" fill="black"/>
</svg>

<svg xmlns="http://www.w3.org/2000/svg" width="24" height="24" fill="currentColor" viewBox="0 0 24 24">
  <path d="M3.726 15.319c-.471 0-1.076-.071-1.407-.211-.505-.209-.78-.556-.816-1.032-.055-.753.574-1.517 1.479-2.272.813-.675 1.623-1.06 2.405-1.143.052-.006.1-.009.146-.009.467 0 .54.32.551.457.047.633-.435 1.276-1.474 1.966-.124.08-.23.148-.322.205a.847.847 0 0 1-.289.104.572.572 0 0 1-.057.003c-.233 0-.255-.215-.257-.24-.014-.191.121-.32.165-.362.09-.077.16-.13.22-.17.466-.305.801-.64.995-.995-.529.096-1.088.367-1.667.807-.666.504-1.185.985-1.152 1.429.025.34.842.39 1.208.39.192 0 .412-.013.653-.038.907-.097 1.924-.36 3.021-.781.114-.04.271-.108.472-.202.2-.094.42-.206.654-.333.23-.131.452-.278.653-.435a2.4 2.4 0 0 0 .483-.466.575.575 0 0 0 .126-.366c-.01-.14-.111-.273-.3-.395a3.409 3.409 0 0 0-.898-.383 11.574 11.574 0 0 0-1.168-.277A25.81 25.81 0 0 0 6 10.357a5.386 5.386 0 0 1-.681-.189 2.774 2.774 0 0 1-.718-.39c-.246-.2-.38-.443-.4-.727-.03-.398.13-.792.474-1.172.32-.357.786-.693 1.383-.998a9.09 9.09 0 0 1 1.447-.57c.47-.146.915-.242 1.324-.285.16-.017.309-.026.443-.026.326 0 .575.05.762.15a.836.836 0 0 1 .494.722c.011.157-.02.348-.095.586-.07.222-.164.43-.28.616-.143.217-.3.333-.47.351a.488.488 0 0 1-.053.003c-.206 0-.291-.157-.301-.291-.011-.157.08-.287.172-.393.074-.085.148-.184.22-.296a.332.332 0 0 0 .064-.202c-.003-.044-.008-.11-.148-.145a1.37 1.37 0 0 0-.337-.034 3.77 3.77 0 0 0-.393.024 5.284 5.284 0 0 0-.59.104 5.36 5.36 0 0 0-.695.184c-.224.07-.494.165-.804.281a4.536 4.536 0 0 0-.825.412c-.765.483-.757.718-.756.727 0 .012.033.281 1.12.458a121.814 121.814 0 0 1 2.634.435c.528.14.886.336 1.106.603.227.254.357.555.382.89a1.7 1.7 0 0 1-.137.749c-.097.25-.261.496-.487.725-.302.324-.645.64-1.017.937-.379.292-.858.566-1.428.818-.534.237-1.063.428-1.571.567-.5.148-1.004.25-1.498.303a5.821 5.821 0 0 1-.615.035Zm8.111-2.791a.88.88 0 0 1-.419-.105 1.14 1.14 0 0 1-.136-.086c-.257-.208-.378-.557-.366-1.04.007-.152.034-.347.082-.6.046-.255.11-.517.189-.777.089-.28.19-.522.302-.724.138-.248.297-.383.474-.402a.578.578 0 0 1 .391.113c.138.083.228.242.242.44.01.12-.03.255-.126.434a9.876 9.876 0 0 0-.249.458 3.124 3.124 0 0 0-.21.554c-.055.184-.074.38-.059.587.012.16.043.248.07.279.014.009.02.01.03.01.03 0 .121-.02.336-.197l.312-.3c.18-.212.248-.315.47-.659l.02-.03c.064-.09.131-.114.177-.119a.432.432 0 0 1 .028-.002c.118 0 .263.092.282.351.007.098-.029.19-.16.405a1.756 1.756 0 0 0-.049.08c-.013.021-.017.03-.1.147l-.035.053c-.068.103-.132.2-.227.316a3.664 3.664 0 0 1-.385.392l-.256.197a1.029 1.029 0 0 1-.628.225Zm.778-4.011a.563.563 0 0 1-.383-.154.81.81 0 0 1-.22-.512.85.85 0 0 1 .13-.533c.117-.166.26-.255.427-.273a.552.552 0 0 1 .454.171c.132.13.21.304.224.503a.823.823 0 0 1-.147.543.604.604 0 0 1-.485.255Zm5.203 3.403c-.131 0-.24-.071-.309-.2a.817.817 0 0 1-.091-.32.673.673 0 0 1 .037-.261c.085-.222.176-.55.274-.987a11.722 11.722 0 0 0 .258-1.538.288.288 0 0 1 .007-.042 2.64 2.64 0 0 1 .052-.177.719.719 0 0 1 .315-.392c.155-.096.28-.147.383-.158a.362.362 0 0 1 .201.041c.117.043.193.158.204.312.005.056.001.143-.053.391a10.1 10.1 0 0 1-.129.519l.114-.147a14.6 14.6 0 0 1 .485-.592 9.87 9.87 0 0 1 .438-.478c.161-.162.28-.239.386-.25a.571.571 0 0 1 .39.09c.09.05.234.175.256.475.009.119-.03.259-.13.468l-.266.561a4.256 4.256 0 0 0-.244.649 1.76 1.76 0 0 0-.068.616c.009.12.04.216.094.293.03.034.075.056.138.056.01 0 .02 0 .031-.002.183-.02.16-.088.323-.202.17-.128.33-.282.471-.454.147-.177.276-.351.386-.516l.263-.417c.045-.064.098-.098.155-.105a.245.245 0 0 1 .188.075c.047.038.11.114.122.26a.452.452 0 0 1-.082.298 8.806 8.806 0 0 1-.55.808 3.557 3.557 0 0 1-.688.711c-.264.204-.366.325-.693.36a1.525 1.525 0 0 1-.164.009c-.613 0-.982-.427-1.04-1.203a3.07 3.07 0 0 1 .062-.793c-.149.193-.278.38-.388.558-.24.38-.413.66-.517.838a.734.734 0 0 0-.077.196 2.81 2.81 0 0 1-.157.379c-.116.206-.252.26-.346.27a.356.356 0 0 1-.041.001Z"/>
  <path d="m15.74 12.17.049-.449a.071.071 0 0 0-.01-.05.058.058 0 0 0-.046-.024c-.016 0-.029.008-.042.024-.25.319-.553.495-.906.533a.585.585 0 0 1-.524-.234 1.147 1.147 0 0 1-.215-.615 2.59 2.59 0 0 1 .175-1.106 4.39 4.39 0 0 1 1.371-1.83c.304-.223.608-.35.904-.383a.55.55 0 0 1 .06-.003c.079 0 .176.014.298.043.146.022.292.07.422.14a.518.518 0 0 1 .303.44l-.007.084a.522.522 0 0 1-.296.365c-.061.416-.126.831-.194 1.247l-.04.229a8.92 8.92 0 0 0-.086.53l-.032.256c-.027.225-.052.424-.079.591l-.073.584-.006.035c-.025.136-.041.242-.056.334-.029.188-.127.648-.193.947a7.38 7.38 0 0 1-.373 1.131c-.184.46-.364.763-.656 1.201-.39.583-.491.722-.99 1.153-.644.557-1.244.657-1.935.657h-.018a3.2 3.2 0 0 1-.843-.131l-.04-.012c-.14-.043-.299-.091-.39-.135a2.16 2.16 0 0 1-.696-.522c-.37-.382-.443-.74-.468-1.07-.035-.48.095-.794.269-1.155.034-.064.189-.328.42-.328.145 0 .186.062.206.11.065.156-.085.367-.142.462-.149.303-.168.378-.184.561a.89.89 0 0 0 .07.5.866.866 0 0 0 .301.389c.165.135.48.288.557.318l.088.033c.109.04.194.07.265.085a3.703 3.703 0 0 0 .471.067c.076 0 .29-.002.44-.019.154-.017.317-.053.455-.12a2.639 2.639 0 0 0 .715-.54c.16-.178.222-.266.38-.502.054-.08.226-.381.271-.468.102-.196.24-.442.419-.951.178-.51.22-.574.383-1.203.165-.628.248-1.2.248-1.2Zm.392-2.843a.046.046 0 0 0-.03.013l-.037.032c-.208.17-.402.381-.579.632-.18.246-.327.5-.438.761-.095.227-.137.427-.125.592a.182.182 0 0 0 .004.03c.04-.01.111-.04.235-.134.143-.117.29-.305.434-.553.16-.266.307-.566.439-.896.054-.13.103-.255.149-.38a.07.07 0 0 0-.004-.062c-.01-.02-.03-.035-.048-.035Z"/>
  <path d="M3.726 17.797c-.149 0-.283-.107-.341-.273-.08-.226.007-.49.194-.587 3.172-1.959 5.876-3.199 9.08-3.992 1.685-.417 3.883-.73 5.213-.843a18.703 18.703 0 0 1 1.338-.039c.524 0 1.027.013 1.283.032.526.04.655.088.98.247.19.091.282.352.207.58-.056.172-.191.283-.344.283a.313.313 0 0 1-.138-.032c-.234-.114-.041-.288-.498-.322-.074-.006-.528-.03-.643-.03-.61 0-1.547.039-2.082.084-1.2.103-2.599.297-4.443.657l-1.676.376c-3.252.803-5.046 1.983-7.971 3.815a.326.326 0 0 1-.16.044Z"/>
</svg>
